!!!OTL: No_34_Corn_Plant,_I_Sing_for_You.krn
!!!LING_GROUP: Keresan
!!!LANG: Tone
!!!REG: Southwest
!!!SOCIAL_FUNCTION: corn dance songs
**kern
*staff1
=1-
*clefF4
*k[]
*M3/4
8.G\L
16G\Jk
8.G\L
16G\Jk
8.G\L
16G\Jk
=2!|:
*M2/4
8.f\L
16f\Jk
8e;\L
8d\J
=3
8.A\L
16A\Jk
12A\L
12G\
12G\J
=4
8.d\L
16d\Jk
8d;\L
8c\J
=5
*M3/4
8.d\L
16d\Jk
12d\L
12c\
12A\J
8.G\L
16A\Jk
=6
*M2/4
8.c\L
16c\Jk
8.c\L
16A\Jk
=7
8.A\L
16A\Jk
8.A\L
16c\Jk
=8
*M3/4
8.G\L
16G\Jk
8.G\L
16G\Jk
8G\
8r
=9
12c\L
12G\
12G\J
8.G\L
16G\Jk
12A\L
12G\
12G\J
=10:|!|:
*M2/4
16A\LK
8.d\J
12c\L
12B\
12A\J
=11
12G\L
12G\
12G\J
12A\L
12G\
12G\J
=12
8.G\L
16G\Jk
12A\L
12A\
12G\J
=13
8.A\L
16A\Jk
4G\
=14
16A\LK
8.d\J
12c\L
12B\
12A\J
=15
12G\L
12G\
12G\J
12A\L
12G\
12G\J
=16
8.G\L
16G\Jk
12A\L
12A\
12G\J
=17
8.A\L
16A\Jk
4G\
==:|!
*-
